!!!OTL: Prelude No. 17 in F-sharp minor
**kern	**kern
*staff2	*staff1
*Icemba	*Icemba
*>[A,A,B,B]	*>[A,A,B,B]
*>norep[A,B]	*>norep[A,B]
*>A	*>A
*clefF4	*clefG2
*k[b-e-]	*k[b-e-]
*B-:	*B-:
*M12/16	*M12/16
*MM81	*MM81
=1-	=1-
*	*^
[2.B-\	16r	4.r
.	16bb-/LL	.
.	16aa/JJ	.
.	16gg/LL	.
.	16ff/	.
.	16ee-/JJ	.
.	8.dd/L	16r
.	.	16b-\LL
.	.	16a\JJ
.	8.ee-/J	16g\LL
.	.	16f\
.	.	16e-\JJ
=2	=2	=2
16B-\LL]	8ff/L	8d\L
16B-\	.	.
16A-\JJ	16dd/Jk	16f\Jk
16G\LL	8ee-/L	8b-\L
16F\	.	.
16E-\JJ	16gg/Jk	16ee-\Jk
16B-\LL	16gg/LL	[8.ee-\
16An\	16ff/	.
16B-\JJ	16gg/JJ	.
[8.BB-/	(8.ff/	16ee-\LL]
.	.	&(16dd\&))
.	.	16cc\JJ
=3	=3	=3
16BB-/LL]	8ff/L	8.dd\L
16D/	.	.
16E-/JJ	16b-/Jk	.
16F\LL	8a/L	8.cc\J
16G\	.	.
16A\JJ	16ee-/Jk	.
8.B-\L	8.dd/L	16b-\LL
.	.	16d\
.	.	16e-\JJ
8.A\J	8.cc/J	16f\LL
.	.	16g\
.	.	16a\JJ
=4	=4	=4
8G\L	16b-/LL	[4.b-\
.	16cc/	.
16F\Jk	16dd/JJ	.
8G\L	16ee-/LL	.
.	16ff/	.
16E-\Jk	16gg/JJ	.
[8.F\	[4.cc/	16b-\LL]
.	.	16a\
.	.	16g\JJ
16F\LL]	.	[8.a\
16A\	.	.
16c\JJ	.	.
=5	=5	=5
8.f\L	16cc/LL]	16a\]
.	16a/	16r
.	16b-/JJ	16r
8.e-\J	16cc/LL	8.r
.	16dd/	.
.	16ee-/JJ	.
8.d\L	8.ff/L	16r
.	.	16f\LL
.	.	16g\JJ
8.c\J	8.ee-/J	16a\LL
.	.	16b-\
.	.	16cc\JJ
=6	=6	=6
16B-\LL	8.dd/	(8dd\L
16BB-\	.	.
16C\JJ	.	16g\Jk
16D\LL	8dd/L)	8f#\L
16En\	.	.
16F#\JJ	16cc/Jk	[16a\Jk
[8.G\	[4.b-/	16a\LL]
.	.	16d\
.	.	16f#\JJ
16G\LL]	.	[8.g\
16B-\	.	.
16D\JJ	.	.
=7	=7	=7
8.En\L	16b-/LL]	8.g\_
.	16cc/	.
.	16g/JJ	.
[8.F\J	[8.a/	16g\LL]
.	.	16c\
.	.	16en\JJ
16F\LL]	8.a/]	[4.f\
16F\	.	.
16E\JJ	.	.
16D/LL	8b-/L	.
16C/	.	.
16BB-/JJ	32a/LL	.
.	32b-/JJJ	.
=8	=8	=8
8.AA/L	16cc/LL	4.f\_
.	16ff/	.
.	16een/JJ	.
8.BB-/J	16dd/LL	.
.	16cc/	.
.	16b-/JJ	.
[8.C/	16a/LL	8.f\L]
.	16g/	.
.	16a/JJ	.
16C\LL]	8.g/	8.en\J
16En\	.	.
16G\JJ	.	.
*	*v	*v
=9	=9
16B-\LL	16c/LL
16A\	16en/
16B-\JJ	16g/JJ
16C\LL	16b-/LL
16En\	16a/
16G\JJ	16b-/JJ
16A\LL	16c/LL
16G\	16e/
16A\JJ	16f/JJ
16C\LL	16a/LL
16E\	16g/
16F\JJ	16a/JJ
=10	=10
16G\LL	16B-/LL
16F\	16d/
16G\JJ	16en/JJ
16C\LL	16g/LL
16D\	16f/
16En\JJ	16g/JJ
[8.F\	16B-/LL
.	16A/
.	16c/JJ
16F/LL]	16f/LL
16C/	16a/
16AA/JJ	16cc/JJ
=11	=11
16FF/LL	16ee-\LL
16AA/	16dd\
16C/JJ	16ee-\JJ
16E-\LL	16f/LL
16D\	16a/
16E-\JJ	16cc/JJ
16FF/LL	16dd\LL
16AA/	16cc\
16BB-/JJ	16dd\JJ
16D/LL	16f/LL
16C/	16a/
16D/JJ	16b-/JJ
=12	=12
16EE-/LL	16cc\LL
16GG/	16b-\
16AA/JJ	16cc\JJ
16C/LL	16e-/LL
16BB-/	16g/
16C/JJ	16a/JJ
16EE-/LL	16a/LL
16DD/	16b-/
16FF/JJ	16f/JJ
16BB-\LL	[8.d/
16D\	.
16F\JJ	.
=13	=13
8.B-\	16d/LL]
.	16c/
.	16d/JJ
*clefG2	*
8.f/	16A/LL
.	16d/
.	16B-/JJ
8.b-\	16G/LL
.	16d/
.	16B-/JJ
*clefF4	*
8.E-\	16G/LL
.	16d/
.	16b-/JJ
=14	=14
8.AA/	16c/LL
.	16B-/
.	16c/JJ
*clefG2	*
8.e-/	16G/LL
.	16c/
.	16A/JJ
8.a/	16F#/LL
.	16c/
.	16A/JJ
*clefF4	*
8.D\	16F#/LL
.	16c/
.	16a/JJ
=15	=15
8.GG/	16B-/LL
.	16A/
.	16B-/JJ
16F\LL	8.d/
16B-\	.
16G\JJ	.
16En\LL	8.g/
16B-\	.
16G\JJ	.
*	*clefF4
16E\LL	8.C/
16B-\	.
16g\JJ	.
=16	=16
16A-\LL	8.FF/
16G\	.
16A-\JJ	.
*	*clefG2
16E-\LL	8.c/
16A-\	.
16F\JJ	.
16D\LL	8.f/
16A-\	.
16F\JJ	.
*	*clefF4
16D\LL	8.BB-/
16A-\	.
16f\JJ	.
=17	=17
16G\LL	8.EE-/
16f\	.
16e-\JJ	.
*	*clefG2
16d\LL	[8.e-/
16c\	.
16B-\JJ	.
8.An\L	16e-/LL]
.	16cc/
.	16b-/JJ
8.F\J	16a/LL
.	16g/
.	16f/JJ
=18	=18
*^	*
16r	4.BB-\	8e-/L
16c/LL	.	.
16B-/JJ	.	16d/Jk
16A/LL	.	[8.b-\
16G/	.	.
16F/JJ	.	.
8En/L	4.C\	16b-\LL]
.	.	16dd\
16G/Jk	.	16cc\JJ
[8.c/	.	16b-/LL
.	.	16a/
.	.	16g/JJ
=19	=19	=19
*	*	*^
8.c/]	4.D\	16f/LL	4.r
.	.	16g/	.
.	.	16a/JJ	.
8F/L	.	16b-/LL	.
.	.	16cc/	.
16B-/Jk	.	[16dd/JJ	.
4.r	16En\LL	8.dd/]	[4.g\
.	16G\	.	.
.	16F\JJ	.	.
.	16E\LL	8cc/L	.
.	16D\	.	.
.	16C\JJ	16b-/Jk	.
*v	*v	*	*
=20	=20	=20
4.F\	16a/LL	8.g\]
.	16b-/	.
.	16cc/JJ	.
.	16dd/LL	8f\L
.	16een/	.
.	[16ff/JJ	16d\Jk
16G\LL	8.ff/]	4.b-\
16B-\	.	.
16A\JJ	.	.
16G\LL	8ee/L	.
16F\	.	.
16En\JJ	16dd/Jk	.
=21	=21	=21
16A\LL	16cc/LL	8cc\
16G\	16ff/	.
16A\JJ	16een/JJ	16r
16B-\LL	16dd/LL	8.r
16A\	16cc/	.
16G\JJ	16b-/JJ	.
[4.F\	16a/LL	16r
.	16g/	16f\LL
.	16a/JJ	16en\JJ
.	16b-/LL	16d\LL
.	16a/	16c\
.	16g/JJ	16B-\JJ
=22	=22	=22
16F\LL]	16f/LL	8A\
16F\	16g/	.
16E-\JJ	16a/JJ	16r
16D/LL	16b-/LL	[8.f\
16C/	16cc/	.
16BB-/JJ	16dd/JJ	.
8C/	8dd/L	16f\LL]
.	.	16en\
16r	16g/Jk	16d\JJ
8.r	16a/LL	16c\LL
.	16b-/	16B-\
.	16cc/JJ	16A\JJ
=23	=23	=23
16r	8cc/L	[4.d\
16D/LL	.	.
16C/JJ	16f/Jk	.
16BB-/LL	16g/LL	.
16AA/	16a/	.
16GG/JJ	16b-/JJ	.
8C/L	8b-/	16d\LL]
.	.	16c\
16BB-/Jk	16r	16d\JJ
8AA/L	8.r	16en\LL
.	.	16f\
16GG/Jk	.	16g\JJ
=24	=24	=24
8FF/L	16r	8a\
.	16f/LL	.
16E-/Jk	16g/JJ	16r
8D/L	16a/LL	8.r
.	16b-/	.
16C/Jk	16cc/JJ	.
8BB-\L	16dd/LL	4.r
.	16b-/	.
16A\Jk	16cc/JJ	.
8G\L	16dd/LL	.
.	16een/	.
16F\Jk	16ff/JJ	.
=25	=25	=25
8En\L	[4.gg/	16r
.	.	16ff\LL
16G\Jk	.	16een\JJ
8E\L	.	16dd\LL
.	.	16cc\
16C\Jk	.	16b-\JJ
16F\LL	8gg/L]	[4.a\
16g\	.	.
16f\JJ	16cc/Jk	.
16e-\LL	8ff/L	.
16d\	.	.
16c\JJ	16ee-/Jk	.
=26	=26	=26
8.B-\L	[4.dd/	16a\LL]
.	.	16cc\
.	.	16b-\JJ
8.Bn\J	.	16a\LL
.	.	16g\
.	.	16f\JJ
16c\LL	8dd/L]	4.en\
16d\	.	.
16c\JJ	16g/Jk	.
16B-\LL	8cc/L	.
16A\	.	.
16G\JJ	16b-/Jk	.
=27	=27	=27
*^	*	*
4.r	16F\LL	[8.a/	16r
.	16G\	.	16r
.	16F\JJ	.	16c\
.	16E-\LL	16a/LL]	8.f\
.	16D\	16bn/	.
.	16C\JJ	16cc/JJ	.
16r	4.BBn\	16dd/LL	4.r
16r	.	16f/	.
16D/	.	16g/JJ	.
8F/L	.	16a-/LL	.
.	.	16g/	.
16A-/Jk	.	16f/JJ	.
*	*	*v	*v
=28	=28	=28
[8.G/	[8.C\	16en/LL
.	.	16c/
.	.	16Bn/JJ
8G/]	8C\L]	16c/LL
.	.	16d/
16r	16B-\Jk	16e/JJ
4.r	8A-\L	16f/LL
.	.	16c/
.	16G\Jk	16Bn/JJ
.	16A-\LL	16c/LL
.	16c\	16e/
.	16F\JJ	16f/JJ
*v	*v	*
=29	=29
8En\L	16g/LL
.	16c/
16D\Jk	16Bn/JJ
16E\LL	16c/LL
16G\	16f/
16C\JJ	16g/JJ
16F\LL	16a-/LL
16A-\	16f/
16E-\JJ	16g/JJ
16D-\LL	16a-/LL
16F\	16b-/
16C\JJ	16cc/JJ
=30	=30
16BB-\LL	16dd-\LL
16D-\	16b-\
16F\JJ	16cc\JJ
[8.B-\	16dd-\LL
.	16ee-\
.	16ff\JJ
8B-\L]	16gg-\LL
.	16aa-\
16BB-\Jk	16bb-\JJ
8B-\L	16aa-\LL
.	16gg-\
16Bn\Jk	16ff\JJ
=31	=31
16c\LL	16een\LL
16C\	16ggn\
16Dn\JJ	16b-\JJ
16En\LL	16dd-\LL
16F\	16cc\
16G\JJ	16b-\JJ
16A\LL	16cc\LL
16B-\	16ff\
16c\JJ	16a\JJ
16dn\LL	16b-\LL
16c\	16cc\
16B-\JJ	16ddn\JJ
=32	=32
16A\LL	16cc\LL
16G\	16b-\
16F\JJ	16a\JJ
8c\L	16g\LL
.	16ff\
16C\Jk	16een\JJ
16FF/LL	16ff\LL
16AA/	16cc\
16C/JJ	16a\JJ
8.F\	8.f/
=33:|!|:	=33:|!|:
*>B	*>B
16FF\LL	16a/LL
16A\	16f/
16G\JJ	16en/JJ
16A\LL	16f/LL
16B-\	16g/
16c\JJ	16a/JJ
16GG\LL	16b-/LL
16d\	16f/
16c\JJ	16e/JJ
16B-\LL	16f/LL
16A\	16a/
16G\JJ	16b-/JJ
=34	=34
16AA\LL	16cc/LL
16A\	16f/
16B-\JJ	16en/JJ
16A\LL	16f/LL
16G\	16b-/
16F\JJ	16cc/JJ
16BB-/LL	16dd\LL
16D/	16b-\
16E-/JJ	16f\JJ
16F\LL	8d/L
16G\	.
16A-\JJ	16cc/Jk
=35	=35
16GG\LL	16bn/LL
16Bn\	16g/
16An\JJ	16f#/JJ
16B\LL	16g/LL
16c\	16a/
16d\JJ	16b/JJ
16AA\LL	16cc/LL
16e-\	16g/
16d\JJ	16f#/JJ
16c\LL	16g/LL
16B\	16b/
16A\JJ	16cc/JJ
=36	=36
16BBn\LL	16dd/LL
16Bn\	16g/
16A\JJ	16f#/JJ
16B\LL	16g/LL
16A\	16cc/
16G\JJ	16dd/JJ
16C\LL	16ee-\LL
16E-\	16cc\
16Fn\JJ	[16g\JJ
16G\LL	16g\LL]
16A\	16gg\
16B\JJ	16ffn\JJ
=37	=37
8.c\	16ee-\LL
.	16dd\
.	16cc\JJ
*clefG2	*
8.gg\	16b-\LL
.	16ee-\
.	16cc\JJ
8.ccc\	16a-\LL
.	16ee-\
.	16cc\JJ
*clefF4	*
8.A-\	16f\LL
.	16cc\
.	16ee-\JJ
=38	=38
8.B-\	16dd\LL
.	16cc\
.	16b-\JJ
*clefG2	*
8.ff\	16a-\LL
.	16dd\
.	16b-\JJ
8.bb-\	16g\LL
.	16dd-\
.	16b-\JJ
*clefF4	*
8.G\	16e-/LL
.	16b-/
.	16dd-/JJ
=39	=39
8.A-\	16cc\LL
.	16bn\
.	16cc\JJ
*clefG2	*
16g/LL	8.ee-\
16cc/	.
16a-/JJ	.
16f/LL	8.aa-\
16cc/	.
16a-/JJ	.
*	*clefF4
16d/LL	8.F\
16a-/	.
16cc/JJ	.
=40	=40
16bn/LL	8.G\
16an/	.
16g/JJ	.
*	*clefG2
16f/LL	8.dd\
16b/	.
16g/JJ	.
16en/LL	8.gg\
16b-/	.
16g/JJ	.
*	*clefF4
16c/LL	8.En\
16g/	.
16b-/JJ	.
=41	=41
16a-/LL	8.F\
16g/	.
16f/JJ	.
*	*clefG2
16e-/LL	[8.ff\
16d/	.
16c/JJ	.
*clefF4	*
8.Bn\L	16ff\LL]
.	16g\
.	16an\JJ
8.G\J	16bn\LL
.	16cc\
.	16dd\JJ
=42	=42
8.c\L	16ee-\LL
.	16dd\
.	16cc\JJ
8.c#\J	16b-/LL
.	16a/
.	16g/JJ
[8.d\	16f#/LL
.	16dd/
.	16een/JJ
16d\LL]	16ff#\LL
16cn\	16gg\
16B-\JJ	16aa\JJ
=43	=43
*	*^
16e-\LL	8gg/L	8.r
16d\	.	.
16c\JJ	16g/Jk	.
16B-\LL	[8.cc/	16r
16A\	.	16r
16G\JJ	.	16e-\
16F#\LL	8cc/L]	[4.d\
16A\	.	.
16G\JJ	16a/Jk	.
16F#\LL	8dd/L	.
16En\	.	.
16D\JJ	16cc/Jk	.
=44	=44	=44
[8.G\	8.b-/L	16d\LL]
.	.	16dd\
.	.	16cc\JJ
16G\LL]	[8.ee-/J	16b-\LL
16A\	.	16a\
16B-\JJ	.	16g\JJ
16A\LL	16ee-/LL]	[8.f\L
16c\	16a/	.
16B-\JJ	16b-/JJ	.
16A\LL	16cc/LL	8f\J]
16G\	16dd/	.
16F\JJ	16ee-/JJ	16r
=45	=45	=45
16B-\LL	16dd/LL	4.r
16A\	16gg/	.
16B-\JJ	16ff/JJ	.
16c\LL	16ee-/LL	.
16f#\	16dd/	.
16a\JJ	16cc/JJ	.
16d\	16b-/LL	16r
16r	16a/	16g\LL
16r	16b-/JJ	16fn\JJ
8.r	16cc/LL	16e-\LL
.	16ff#/	16d\
.	16aa/JJ	16c\JJ
=46	=46	=46
16r	8dd/L	8B-\L
16G\LL	.	.
16F\JJ	16b-/Jk	16d\Jk
16E-\LL	16cc/LL	[8.g\
16D\	16dd/	.
16C\JJ	16ee-/JJ	.
8D\	8ee-/L	16g\LL]
.	.	16f\
16r	16a/Jk	16e-\JJ
8.r	16b-/LL	16d\LL
.	16cc/	16c\
.	16dd/JJ	16B-\JJ
=47	=47	=47
*^	*	*
4.r	16r	8dd/L	[4.e-\
.	16E-\LL	.	.
.	16D\JJ	16g/Jk	.
.	16C\LL	16a/LL	.
.	16BB-\	16b-/	.
.	16AA\JJ	16cc/JJ	.
8.r	8.D\L	16cc/LK	16e-\LL]
.	.	[8f#/J	16e-\
.	.	.	16d\JJ
16c/LL	[8.E-\J	16f#/LL]	8.r
16B-/	.	16g/	.
16A/JJ	.	16a/JJ	.
=48	=48	=48	=48
16G/LL	8E-\L]	16b-/LL	16r
16F#/	.	16ee-/	16cc\LL
16G/JJ	16BB-\Jk	16dd/JJ	16b-\JJ
16A/LL	8C\L	16cc/LL	16a\LL
16B-/	.	16b-/	16g\
[16c/JJ	16D\Jk	16a/JJ	16f#\JJ
16c/LL]	[8.G\	8.g/	8.g\
16B-/	.	.	.
16A/JJ	.	.	.
8B-/	16G\LL]	8.r	8.r
.	16Fn\	.	.
16r	16E-\JJ	.	.
*v	*v	*	*
=49	=49	=49
8.D\L	16r	4.r
.	16bb-/LL	.
.	16aa/JJ	.
8.E-\J	16gg/LL	.
.	16ff/	.
.	16ee-/JJ	.
8.F\L	8.dd/L	16r
.	.	16b-\LL
.	.	16a-\JJ
8.G\J	8.ee-/J	16g\LL
.	.	16f\
.	.	16e-\JJ
=50	=50	=50
16A-\LL	8ff/L	8d\L
16B-\	.	.
16A-\JJ	16dd/Jk	16f\Jk
16G\LL	8ee-/L	[8.b-\
16F\	.	.
16E-\JJ	16gg/Jk	.
16F\LL	8.cc/L	8b-\L]
16G\	.	.
16F\JJ	.	[16an\Jk
16E-\LL	[8.ff/J	8a\L]
16D\	.	.
16C\JJ	.	16a-\Jk
=51	=51	=51
8BBn/	16ff/LL]	[8.g\
.	16ee-/	.
16r	16dd/JJ	.
8C/	[8.ee-/	16g\LL]
.	.	16cc\
16r	.	16an\JJ
8AA/	16ee-/LL]	[8.f\
.	16dd/	.
16r	16cc/JJ	.
16BB-\LL	[8.dd/	16f\LL]
16B-\	.	16g\
16A\JJ	.	16a\JJ
=52	=52	=52
16G\LL	16dd/LL]	[8.b-\
16F\	16ee-/	.
16E-\JJ	16ff/JJ	.
16D/LL	16gg/LL	16b-\LL]
16C/	16aa/	16cc\
16BB-/JJ	16bb-/JJ	16dd\JJ
[8.F\	8.b-/L	16dd\LL
.	.	16cc\
.	.	16dd\JJ
16F\LL]	8.a/J	8.cc\
16A\	.	.
16c\JJ	.	.
*	*v	*v
=53	=53
16e-\LL	16f/LL
16d\	16a/
16e-\JJ	16cc/JJ
16F\LL	16ee-\LL
16A\	16dd\
16c\JJ	16ee-\JJ
16d\LL	16f/LL
16c\	16a/
16d\JJ	16b-/JJ
16F\LL	16dd\LL
16A\	16cc\
16B-\JJ	16dd\JJ
=54	=54
16c\LL	16e-/LL
16B-\	16g/
16c\JJ	16a/JJ
16F\LL	16cc\LL
16G\	16b-\
16A\JJ	16cc\JJ
16B-\LL	16e-/LL
16F\	16d/
16D\JJ	16f/JJ
16BB-/LL	16b-\LL
16F/	16dd\
16AA-/JJ	16ee-\JJ
=55	=55
16GG/LL	16ff\LL
16BBn/	16ee-\
16D/JJ	16ff\JJ
16F\LL	16g\LL
16E-\	16bn\
16F\JJ	16dd\JJ
16GG/LL	16ee-\LL
16BB/	16dd\
16C/JJ	16ee-\JJ
16E-\LL	16g/LL
16D\	16b/
16E-\JJ	16cc/JJ
=56	=56
16FF/LL	16dd\LL
16AA-/	16cc\
16BBn/JJ	16dd\JJ
16D/LL	16f/LL
16C/	16a-/
16D/JJ	16bn/JJ
16FF/LL	16b/LL
16EE-/	16cc/
16GG/JJ	16g/JJ
16C\LL	[8.e-/
16E-\	.
16G\JJ	.
=57	=57
*	*^
[8.c\	4.r	16e-\LL]
.	.	16ee-\
.	.	16dd\JJ
16c\LL]	.	16cc\LL
16d\	.	16b-\
16e-\JJ	.	16a-\JJ
16d\LL	[4.ff/	[4.a-\
16B-\	.	.
16c\JJ	.	.
16d\LL	.	.
16e-\	.	.
16f\JJ	.	.
=58	=58	=58
[8.G\	16ff/LL]	8.a-\L]
.	16b-/	.
.	16dd/JJ	.
16G\LL]	16ee-/LL	8.g\J
16An\	16ff/	.
16B-\JJ	16dd/JJ	.
16A\LL	[4.ee-/	[4.f\
16F\	.	.
16G\JJ	.	.
16A\LL	.	.
16B-\	.	.
16c\JJ	.	.
=59	=59	=59
[8.D\	8.ee-/L]	16f\LL]
.	.	16f\
.	.	16a\JJ
16D\LL]	8.dd/J	16b-\LL
16En\	.	16cc\
16F\JJ	.	16a\JJ
16E\LL	[4.gg/	[4.b-\
16C\	.	.
16D\JJ	.	.
16E\LL	.	.
16F\	.	.
16G\JJ	.	.
=60	=60	=60
[8.AA-/	16gg/LL]	8.b-\L]
.	16cc/	.
.	16een/JJ	.
16AA-/LL]	16ff/LL	8.a-\J
16BB-/	16gg/	.
16C/JJ	16ee/JJ	.
16BBn/LL	[4.ff/	[4.g\
16GG/	.	.
16AAn/JJ	.	.
16BB/LL	.	.
16C/	.	.
16D/JJ	.	.
=61	=61	=61
[8.EE-/	8.ff/L]	16g\LL]
.	.	16g\
.	.	16bn\JJ
16EE-/LL]	8.ee-/J	16cc\LL
16FF/	.	16dd\
16GG/JJ	.	16b\JJ
16FF#/LL	[4.dd/	[4.cc\
16DD/	.	.
16EEn/JJ	.	.
16FF#/LL	.	.
16GG/	.	.
16AA/JJ	.	.
=62	=62	=62
16BB-/LL	4.dd/_	16cc\LL]
16GG/	.	16b-\
16AA/JJ	.	16a\JJ
16BB-/LL	.	16g\LL
16C/	.	16a\
16D/JJ	.	16f#\JJ
16E-\LL	16dd/LL]	[4.g\
16C\	16ee-/	.
16D\JJ	16dd/JJ	.
16E-\LL	16cc/LL	.
16Fn\	16dd/	.
16G\JJ	16b-/JJ	.
=63	=63	=63
16AA/LL	[4.cc/	16g\LL]
16FF/	.	16a\
16GG/JJ	.	16g\JJ
16AA/LL	.	16f\LL
16BB-/	.	16g-\
16C/JJ	.	16e-\JJ
16D-/LL	16cc/LL]	[4.f\
16BB-/	16dd-/	.
16C/JJ	16cc/JJ	.
16D-\LL	16b-/LL	.
16E-\	16cc/	.
16F\JJ	16a/JJ	.
=64	=64	=64
8.GG-/L	16b-/LL	8.f\L]
.	16cc/	.
.	[16dd-/JJ	.
8.GGn/J	16dd-/LL]	8.en\J
.	16cc/	.
.	16b-/JJ	.
16FF/LL	16b-/LL	[8.f\L
16AA/	16a/	.
16BB-/JJ	16g/JJ	.
16C\LL	8a/	8f\J]
16Dn\	.	.
16E-\JJ	16r	16r
=65	=65	=65
*^	*	*
4.r	8.F\L	16r	4.r
.	.	16A/LL	.
.	.	16B-/JJ	.
.	8.E-\J	16c/LL	.
.	.	16d/	.
.	.	16e-/JJ	.
16r	8.D\L	8.f/L	8.r
16F/LL	.	.	.
16G/JJ	.	.	.
8.r	8.C\J	8.e-/J	16A\LL
.	.	.	16B-\
.	.	.	16c\JJ
*v	*v	*	*
=66	=66	=66
16BB-\LL	8d/L	[4.d\
16c\	.	.
16B-\JJ	16g/Jk	.
16A\LL	8f#/L	.
16G\	.	.
16F#\JJ	16cc/Jk	.
8.G\L	8.b-/L	16d\LL]
.	.	16a\
.	.	16g\JJ
8.B-\J	[8.a/J	16f#\LL
.	.	16e-\
.	.	16d\JJ
=67	=67	=67
8.E-\L	16a/LL]	8e-\
.	16g/	.
.	16an/JJ	16r
8.D\J	16b-/LL	8.r
.	16cc/	.
.	16dd/JJ	.
8.C/L	8.ee-/L	16r
.	.	16e-\LL
.	.	16f\JJ
8.BB-/J	8.dd/J	16g\LL
.	.	16a\
.	.	16b-\JJ
=68	=68	=68
16AA\LL	[4.cc/	8cc\L
16B-\	.	.
16A\JJ	.	16f\Jk
16G\LL	.	8en\L
16F\	.	.
16En\JJ	.	16b-\Jk
16F/LL	(4.cc/]	16a\LL
16FF/	.	16b-\
16GG/JJ	.	&(16a\JJ&))
16AA/LL	.	16g\LL
16BB-/	.	16f\
16C/JJ	.	16e-\JJ
=69	=69	=69
8.D/L	16cc/LL	8.f\L
.	16a/	.
.	[16b-/JJ	.
8.C/J	16b-/LL]	8e-\J
.	16a/	.
.	16ee-/JJ	16r
8.BB-/L	[4.dd/	16r
.	.	16d\LL
.	.	16g\JJ
8.AA/J	.	16g\LL
.	.	16f#\
.	.	16cc\JJ
=70	=70	=70
16GG\LL	8.dd/L]	8.b-\L
16a-\	.	.
16g\JJ	.	.
16f\LL	8.aa-/J	8.bn\J
16e-\	.	.
16d\JJ	.	.
16e-\LL	8.gg/L	8cc\L
16f\	.	.
16e-\JJ	.	16an\Jk
16d\LL	8.ff/J	8b\L
16c\	.	.
16Bn\JJ	.	16dd\Jk
=71	=71	=71
16c\LL	8.ee-/L	8.g\L
16d\	.	.
16c\JJ	.	.
16B-\LL	8.een/J	8.dd-\J
16A\	.	.
16G\JJ	.	.
16A\LL	8ff/L	8.cc\L
16B-\	.	.
16A\JJ	16ddn/Jk	.
16G\LL	8ee/L	[8.b-\J
16F\	.	.
16En\JJ	16gg/Jk	.
=72	=72	=72
16F\LL	[4.cc/	8b-\L]
16G\	.	.
16F\JJ	.	16a\Jk
16E-\LL	.	8g\L
16D\	.	.
16C\JJ	.	16cc\Jk
16D\LL	8cc/L]	[4.f\
16E-\	.	.
16D\JJ	16b-/Jk	.
16C/LL	8a/L	.
16BB-/	.	.
16AA/JJ	16ee-/Jk	.
=73	=73	=73
16BB-/LL	[4.dd/	8f\L]
16C/	.	.
16BB-/JJ	.	16g\Jk
16AA/LL	.	8f#\L
16GG/	.	.
16FF#/JJ	.	16cc\Jk
16GG/LL	8dd/L]	[4.b-\
16AA/	.	.
16GG/JJ	16ee-/Jk	.
16FFn/LL	8dd/L	.
16EE-/	.	.
16DD/JJ	16aa-/Jk	.
=74	=74	=74
8EE-/	16r	8.b-/] 8.gg/L
.	16ff\LL	.
16r	[16ee-\JJ	.
8.r	16ee-\LL]	8.a-/ 8.ff/J
.	16cc\	.
.	[16dd\JJ	.
4.r	16dd\LL]	8.g/ 8.ee-/L
.	16dd\	.
.	[16cc\JJ	.
.	16cc\LL]	8.f/ [8.dd/J
.	16an\	.
.	16b-\JJ	.
=75	=75	=75
8.E-\	16dd/LL]	8.e-\ 8.g\L
.	16dd/	.
.	16cc/JJ	.
8.r	16cc/LL	8.d-\ 8.f\J
.	16a/	.
.	[16b-/JJ	.
4.r	16b-/LL]	8.c\ 8.e-\L
.	16b-/	.
.	[16a/JJ	.
.	16a/LL]	8.B-\ 8.d-\J
.	16f/	.
.	16g/JJ	.
=76	=76	=76
8.E-;\	8.f;/	8.A\ 8.c\
8.r	8.r	8.r
16r	4.r	16r
16E-\LL	.	16A/LL
16D\JJ	.	16B-/JJ
16C\LL	.	16A/LL
16BB-\	.	16B-/
16AA\JJ	.	16c/JJ
*	*v	*v
=77	=77
16BB-/LL	16d/LL
16FF/	16e-/
16GG/JJ	16d/JJ
16AA/LL	16c/LL
16BB-/	16B-/
16C/JJ	16A/JJ
16D/LL	16B-/LL
16BB-/	16a-/
16C/JJ	16g/JJ
16D\LL	16f/LL
16E-\	16e-/
16F\JJ	16d/JJ
=78	=78
16G\LL	16e-/LL
16A-\	16B-/
16G\JJ	16c/JJ
16F\LL	16d/LL
16E-\	16e-/
16D\JJ	16f/JJ
16E-\LL	16g/LL
16d\	16e-/
16c\JJ	16f/JJ
16B-\LL	16g/LL
16An\	16an/
16G\JJ	16b-/JJ
=79	=79
16A\LL	16cc\LL
16En\	16dd\
16F\JJ	16cc\JJ
16G\LL	16b-/LL
16A\	16a/
16B-\JJ	16g/JJ
16c\LL	16a\LL
16A\	16gg\
16B-\JJ	16ff\JJ
16c\LL	16ee-\LL
16d\	16dd\
16e-\JJ	16cc\JJ
=80	=80
*	*^
4.r	16dd/LL	16f\LL
.	16a/	16g\
.	16b-/JJ	16f\JJ
.	16cc/LL	16e-\LL
.	16dd/	16d\
.	16ee-/JJ	16c\JJ
4.r	16ff/LL	16d\LL
.	16dd/	16cc\
.	16ee-/JJ	16b-\JJ
.	16ff/LL	16a-\LL
.	16gg/	16g\
.	16aa-/JJ	16f\JJ
=81	=81	=81
4.r	16bb-/LL	16g\LL
.	16ccc/	16a-\
.	16bb-/JJ	16g\JJ
.	16aa-/LL	16f\LL
.	16gg/	16e-\
.	16ff/JJ	16d\JJ
4.r	16gg/LL	16e-\LL
.	16aa-/	16f\
.	16gg/JJ	16e-\JJ
.	16ff/LL	16d\LL
.	16ee-/	16c\
.	16dd/JJ	16Bn\JJ
=82	=82	=82
16c\LL	[2.ee-/	8.r
16d\	.	.
16c\JJ	.	.
16B-\LL	.	8.dd\
16A\	.	.
16G\JJ	.	.
16A\LL	.	8.cc\L
16AA\	.	.
16BB-\JJ	.	.
16C\LL	.	8.b-\J
16D\	.	.
16E-\JJ	.	.
=83	=83	=83
[8.FF/	16ee-/LL]	8a\
.	16f/	.
.	16en/JJ	16r
8FF\L]	16f/LL	8.r
.	16g/	.
16e-\Jk	16a/JJ	.
8d-\L	16b-/LL	4.r
.	16f/	.
16c\Jk	16en/JJ	.
16d-\LL	16f/LL	.
16f\	16a/	.
16B-\JJ	16b-/JJ	.
*	*v	*v
=84	=84
8A\L	16cc/LL
.	16f/
16G\Jk	16en/JJ
16A\LL	16f/LL
16c\	16b-/
16F\JJ	16cc/JJ
16B-\LL	16dd-\LL
16d-\	16b-\
16A-\JJ	16cc\JJ
16G-\LL	16dd-\LL
16B-\	16ee-\
16F\JJ	16ff\JJ
=85	=85
[8.E-\	16gg-\LL
.	16ee-\
.	16ff\JJ
16E-/LL]	16gg-\LL
16BB-/	16aa-\
16GG-/JJ	16bb-\JJ
16EE-/LL	16ccc-\LL
16GG-/	16bb-\
16BB-/JJ	16aa-\JJ
16E-\LL	16gg-\LL
16F\	16ff\
[16G-\JJ	16ee-\JJ
=86	=86
16G-\LL]	16aan\LL
16F\	16cccn\
16Gn\JJ	16ee-\JJ
16A\LL	16gg-\LL
16B-\	16ff\
16c\JJ	16ee-\JJ
16d\LL	16ff\LL
16e-\	16bb-\
16f\JJ	16dd\JJ
16gn\LL	16ee-\LL
16f\	16ff\
16e-\JJ	16ggn\JJ
=87	=87
16d\LL	16ff\LL
16c\	16ee-\
16B-\JJ	16dd\JJ
8f\L	16cc\LL
.	16bb-\
16F\Jk	16aa\JJ
16BB-\LL	16bb-\LL
16D\	16ff\
16F\JJ	16dd\JJ
8.B-\	8.b-\
==:|!	==:|!
*-	*-
!!!ENC: Craig Stuart Sapp
!!!END: 2008/01/29
